dist/svgs/carbon-icons/svg/restart-glyph.svg

<svg xmlns="http://www.w3.org/2000/svg" fill-rule="evenodd" viewBox="0 0 12 16"><path d="M6 8l1.3 1.3 1.9-1.9L10.6 6 12 4.7 7.3 0 6 1.2l2.6 2.4H5.9c-1.7 0-3.3.8-4.4 2C.5 6.7 0 8.1 0 9.6c0 3.3 2.7 6 6 6 1.6 0 3-.6 4-1.6l-1.4-1.4c-.7.6-1.6 1-2.6 1-2.2 0-4-1.8-4-4s1.8-4 4-4h2.8l-.6.6L6 8z"/></svg>

<svg width="12px" height="16px" viewBox="0 0 12 16" version="1.1" xmlns="http://www.w3.org/2000/svg" xmlns:xlink="http://www.w3.org/1999/xlink" fill-rule="evenodd">
	<path d="M6,8 L7.3,9.3 L9.2,7.4 L10.6,6 L12,4.7 L7.3,0 L6,1.2 L8.6,3.6 L6.1,3.6 C6.1,3.6 6.1,3.6 6,3.6 L5.9,3.6 C4.2,3.6 2.6,4.4 1.5,5.6 C0.5,6.7 0,8.1 0,9.6 C0,12.9 2.7,15.6 6,15.6 C7.6,15.6 9,15 10,14 L8.6,12.6 C7.9,13.2 7,13.6 6,13.6 C3.8,13.6 2,11.8 2,9.6 C2,7.4 3.8,5.6 6,5.6 L6.1,5.6 L8.8,5.6 L8.2,6.2 L6,8 L6,8 Z" id="Shape" fill="#000000"></path>
</svg>
